Newaita-dark/mimetypes/256/virtualbox-vbox-extpack.svg

<?xml version="1.0" encoding="UTF-8"?>
<svg xmlns="http://www.w3.org/2000/svg" xmlns:xlink="http://www.w3.org/1999/xlink" width="256pt" height="256pt" viewBox="0 0 256 256" version="1.1">
<defs>
<linearGradient id="linear0" gradientUnits="userSpaceOnUse" x1="254" y1="233.5" x2="254" y2="254.666672" gradientTransform="matrix(0.500048,0,0,0.500048,5.292162,107.510266)">
<stop offset="0" style="stop-color:rgb(0%,0%,0%);stop-opacity:0.27451;"/>
<stop offset="1" style="stop-color:rgb(0%,0%,0%);stop-opacity:0;"/>
</linearGradient>
<radialGradient id="radial0" gradientUnits="userSpaceOnUse" cx="450.908936" cy="189.579361" fx="450.908936" fy="189.579361" r="21.166656" gradientTransform="matrix(0.00000139336,-0.62506,-1.125108,-0.000000812309,395.876553,508.762645)">
<stop offset="0" style="stop-color:rgb(0%,0%,0%);stop-opacity:0.313725;"/>
<stop offset="0.222222" style="stop-color:rgb(0%,0%,0%);stop-opacity:0.27451;"/>
<stop offset="1" style="stop-color:rgb(0%,0%,0%);stop-opacity:0;"/>
</radialGradient>
<radialGradient id="radial1" gradientUnits="userSpaceOnUse" cx="450.908936" cy="189.579361" fx="450.908936" fy="189.579361" r="21.166656" gradientTransform="matrix(-0.00000139336,0.62506,1.125108,0.000000812309,-147.144391,-60.219846)">
<stop offset="0" style="stop-color:rgb(0%,0%,0%);stop-opacity:0.313725;"/>
<stop offset="0.222222" style="stop-color:rgb(0%,0%,0%);stop-opacity:0.27451;"/>
<stop offset="1" style="stop-color:rgb(0%,0%,0%);stop-opacity:0;"/>
</radialGradient>
<radialGradient id="radial2" gradientUnits="userSpaceOnUse" cx="450.908936" cy="189.579361" fx="450.908936" fy="189.579361" r="21.166656" gradientTransform="matrix(-0.00000139336,-0.62506,1.125108,-0.000000812309,-147.144391,508.762645)">
<stop offset="0" style="stop-color:rgb(0%,0%,0%);stop-opacity:0.313725;"/>
<stop offset="0.222222" style="stop-color:rgb(0%,0%,0%);stop-opacity:0.27451;"/>
<stop offset="1" style="stop-color:rgb(0%,0%,0%);stop-opacity:0;"/>
</radialGradient>
<radialGradient id="radial3" gradientUnits="userSpaceOnUse" cx="450.908936" cy="189.579361" fx="450.908936" fy="189.579361" r="21.166656" gradientTransform="matrix(0.00000139336,0.62506,-1.125108,0.000000812309,395.876538,-60.21985)">
<stop offset="0" style="stop-color:rgb(0%,0%,0%);stop-opacity:0.313725;"/>
<stop offset="0.222222" style="stop-color:rgb(0%,0%,0%);stop-opacity:0.27451;"/>
<stop offset="1" style="stop-color:rgb(0%,0%,0%);stop-opacity:0;"/>
</radialGradient>
<linearGradient id="linear1" gradientUnits="userSpaceOnUse" x1="940" y1="1695.118164" x2="940" y2="175.118118" gradientTransform="matrix(0.132304,0,0,0.132304,0,0)">
<stop offset="0" style="stop-color:rgb(64.705882%,83.921569%,65.490196%);stop-opacity:1;"/>
<stop offset="1" style="stop-color:rgb(78.431373%,90.196078%,78.823529%);stop-opacity:1;"/>
</linearGradient>
<linearGradient id="linear2" gradientUnits="userSpaceOnUse" x1="249.189423" y1="233.5" x2="249.189423" y2="254.666687" gradientTransform="matrix(0.239153,0,0,0.875083,120.339379,-130.887284)">
<stop offset="0" style="stop-color:rgb(0%,0%,0%);stop-opacity:0.27451;"/>
<stop offset="1" style="stop-color:rgb(0%,0%,0%);stop-opacity:0;"/>
</linearGradient>
<linearGradient id="linear3" gradientUnits="userSpaceOnUse" x1="338.666656" y1="233.5" x2="338.666656" y2="-168.666672" gradientTransform="matrix(0.500048,0,0,0.500048,0,107.510266)">
<stop offset="0" style="stop-color:rgb(40%,73.333333%,41.568627%);stop-opacity:1;"/>
<stop offset="1" style="stop-color:rgb(50.588235%,78.039216%,51.764706%);stop-opacity:1;"/>
</linearGradient>
<linearGradient id="linear4" gradientUnits="userSpaceOnUse" x1="248.708344" y1="233.5" x2="248.708328" y2="-168.666672" >
<stop offset="0" style="stop-color:rgb(40%,73.333333%,41.568627%);stop-opacity:1;"/>
<stop offset="1" style="stop-color:rgb(50.588235%,78.039216%,51.764706%);stop-opacity:1;"/>
</linearGradient>
</defs>
<g id="surface1">
<path style=" stroke:none;fill-rule:nonzero;fill:url(#linear0);" d="M 63.507812 224.269531 L 185.226562 224.269531 L 185.226562 234.855469 L 63.507812 234.855469 Z M 63.507812 224.269531 "/>
<path style=" stroke:none;fill-rule:nonzero;fill:url(#radial0);" d="M 185.226562 224.269531 L 206.394531 224.269531 L 206.394531 213.6875 L 185.226562 213.6875 Z M 185.226562 224.269531 "/>
<path style=" stroke:none;fill-rule:nonzero;fill:url(#radial1);" d="M 63.507812 224.269531 L 42.335938 224.269531 L 42.335938 234.855469 L 63.507812 234.855469 Z M 63.507812 224.269531 "/>
<path style=" stroke:none;fill-rule:nonzero;fill:url(#radial2);" d="M 63.507812 224.269531 L 42.335938 224.269531 L 42.335938 213.6875 L 63.507812 213.6875 Z M 63.507812 224.269531 "/>
<path style=" stroke:none;fill-rule:nonzero;fill:url(#radial3);" d="M 185.226562 224.269531 L 206.394531 224.269531 L 206.394531 234.855469 L 185.226562 234.855469 Z M 185.226562 224.269531 "/>
<path style=" stroke:none;fill-rule:nonzero;fill:url(#linear1);" d="M 148.335938 23.167969 L 52.921875 23.167969 C 47.058594 23.167969 42.335938 27.890625 42.335938 33.753906 L 42.335938 213.6875 C 42.335938 219.550781 47.058594 224.269531 52.921875 224.269531 L 195.808594 224.269531 C 201.675781 224.269531 206.394531 219.550781 206.394531 213.6875 L 206.394531 81.226562 Z M 148.335938 23.167969 "/>
<path style=" stroke:none;fill-rule:nonzero;fill:rgb(0%,0%,0%);fill-opacity:0.235294;" d="M 42.335938 209.578125 L 42.335938 213.6875 C 42.335938 219.550781 47.058594 224.269531 52.921875 224.269531 L 195.808594 224.269531 C 201.675781 224.269531 206.394531 219.550781 206.394531 213.6875 L 206.394531 209.578125 C 206.394531 215.441406 201.675781 220.160156 195.808594 220.160156 L 52.921875 220.160156 C 47.058594 220.160156 42.335938 215.441406 42.335938 209.578125 Z M 42.335938 209.578125 "/>
<path style=" stroke:none;fill-rule:nonzero;fill:url(#linear2);" d="M 148.179688 73.445312 L 198.457031 73.445312 L 206.394531 81.382812 L 206.394531 91.96875 L 148.179688 91.96875 Z M 148.179688 73.445312 "/>
<path style=" stroke:none;fill-rule:nonzero;fill:rgb(96.470588%,96.470588%,96.470588%);fill-opacity:0.588235;" d="M 52.921875 23.167969 C 47.058594 23.167969 42.335938 27.890625 42.335938 33.753906 L 42.335938 37.722656 C 42.335938 31.859375 47.058594 27.136719 52.921875 27.136719 L 148.335938 27.136719 L 206.394531 85.195312 L 206.394531 81.226562 L 148.335938 23.167969 Z M 52.921875 23.167969 "/>
<path style=" stroke:none;fill-rule:nonzero;fill:url(#linear3);" d="M 206.394531 81.226562 L 148.335938 23.167969 L 148.335938 70.640625 C 148.335938 76.507812 153.058594 81.226562 158.921875 81.226562 Z M 206.394531 81.226562 "/>
<path style=" stroke:none;fill-rule:nonzero;fill:rgb(0%,0%,0%);fill-opacity:0.235294;" d="M 148.335938 68.152344 L 148.335938 70.640625 C 148.335938 76.507812 153.058594 81.226562 158.921875 81.226562 L 206.394531 81.226562 L 203.90625 78.738281 L 158.921875 78.738281 C 153.058594 78.738281 148.335938 74.015625 148.335938 68.152344 Z M 148.335938 68.152344 "/>
<path style=" stroke:none;fill-rule:nonzero;fill:rgb(100%,100%,100%);fill-opacity:0.392157;" d="M 148.335938 23.167969 L 148.335938 27.136719 L 202.425781 81.226562 L 206.394531 81.226562 Z M 148.335938 23.167969 "/>
<path style=" stroke:none;fill-rule:nonzero;fill:rgb(12.941177%,12.941177%,12.941177%);fill-opacity:1;" d="M 148.324219 22.417969 C 147.917969 22.425781 147.585938 22.757812 147.585938 23.167969 L 147.585938 70.640625 C 147.585938 76.910156 152.652344 81.976562 158.921875 81.976562 L 206.394531 81.976562 C 206.699219 81.976562 206.972656 81.792969 207.085938 81.511719 C 207.203125 81.234375 207.140625 80.910156 206.925781 80.695312 L 148.867188 22.636719 C 148.722656 22.496094 148.527344 22.417969 148.324219 22.417969 Z M 149.085938 24.980469 L 204.585938 80.476562 L 158.921875 80.476562 C 153.460938 80.476562 149.085938 76.105469 149.085938 70.640625 Z M 149.085938 24.980469 "/>
<path style=" stroke:none;fill-rule:nonzero;fill:rgb(12.941177%,12.941177%,12.941177%);fill-opacity:1;" d="M 52.921875 22.417969 C 46.65625 22.417969 41.585938 27.488281 41.585938 33.753906 L 41.585938 213.6875 C 41.585938 219.953125 46.65625 225.019531 52.921875 225.019531 L 195.808594 225.019531 C 202.078125 225.019531 207.144531 219.953125 207.144531 213.6875 L 207.144531 81.226562 C 207.144531 81.027344 207.066406 80.835938 206.925781 80.695312 L 148.867188 22.636719 C 148.726562 22.496094 148.535156 22.417969 148.335938 22.417969 Z M 52.921875 23.917969 L 148.027344 23.917969 L 205.644531 81.539062 L 205.644531 213.6875 C 205.644531 219.148438 201.273438 223.519531 195.808594 223.519531 L 52.921875 223.519531 C 47.460938 223.519531 43.085938 219.148438 43.085938 213.6875 L 43.085938 33.753906 C 43.085938 28.292969 47.460938 23.917969 52.921875 23.917969 Z M 52.921875 23.917969 "/>
<path style="fill-rule:nonzero;fill:url(#linear4);stroke-width:3;stroke-linecap:butt;stroke-linejoin:miter;stroke:rgb(12.941177%,12.941177%,12.941177%);stroke-opacity:1;stroke-miterlimit:4;" d="M 236.227441 -30.673852 L 201.027678 67.660507 L 185.372923 24.625554 L 158.750465 24.625554 L 158.750465 40.210004 L 174.459902 40.210004 L 201.137042 113.593621 L 237.789792 11.212773 L 268.33375 79.932773 L 291.417484 26.078541 L 312.259243 77.253341 L 338.662972 77.253341 L 338.662972 61.66108 L 322.742617 61.66108 L 291.784636 -14.347286 L 268.075963 40.967744 Z M 236.227441 -30.673852 " transform="matrix(0.500048,0,0,0.500048,0,107.510266)"/>
</g>
</svg>

<svg xmlns="http://www.w3.org/2000/svg" width="256pt" height="256pt" viewBox="0 0 256 256"><defs><linearGradient id="a" gradientUnits="userSpaceOnUse" x1="254" y1="233.5" x2="254" y2="254.667" gradientTransform="matrix(.50005 0 0 .50005 5.292 107.51)"><stop offset="0" stop-opacity=".275"/><stop offset="1" stop-opacity="0"/></linearGradient><radialGradient id="b" gradientUnits="userSpaceOnUse" cx="450.909" cy="189.579" fx="450.909" fy="189.579" r="21.167" gradientTransform="matrix(0 -.62506 -1.1251 0 395.877 508.763)"><stop offset="0" stop-opacity=".314"/><stop offset=".222" stop-opacity=".275"/><stop offset="1" stop-opacity="0"/></radialGradient><radialGradient id="c" gradientUnits="userSpaceOnUse" cx="450.909" cy="189.579" fx="450.909" fy="189.579" r="21.167" gradientTransform="matrix(0 .62506 1.1251 0 -147.144 -60.22)"><stop offset="0" stop-opacity=".314"/><stop offset=".222" stop-opacity=".275"/><stop offset="1" stop-opacity="0"/></radialGradient><radialGradient id="d" gradientUnits="userSpaceOnUse" cx="450.909" cy="189.579" fx="450.909" fy="189.579" r="21.167" gradientTransform="matrix(0 -.62506 1.1251 0 -147.144 508.763)"><stop offset="0" stop-opacity=".314"/><stop offset=".222" stop-opacity=".275"/><stop offset="1" stop-opacity="0"/></radialGradient><radialGradient id="e" gradientUnits="userSpaceOnUse" cx="450.909" cy="189.579" fx="450.909" fy="189.579" r="21.167" gradientTransform="matrix(0 .62506 -1.1251 0 395.877 -60.22)"><stop offset="0" stop-opacity=".314"/><stop offset=".222" stop-opacity=".275"/><stop offset="1" stop-opacity="0"/></radialGradient><linearGradient id="f" gradientUnits="userSpaceOnUse" x1="940" y1="1695.118" x2="940" y2="175.118" gradientTransform="scale(.1323)"><stop offset="0" stop-color="#a5d6a7"/><stop offset="1" stop-color="#c8e6c9"/></linearGradient><linearGradient id="g" gradientUnits="userSpaceOnUse" x1="249.189" y1="233.5" x2="249.189" y2="254.667" gradientTransform="matrix(.23915 0 0 .87508 120.34 -130.887)"><stop offset="0" stop-opacity=".275"/><stop offset="1" stop-opacity="0"/></linearGradient><linearGradient id="h" gradientUnits="userSpaceOnUse" x1="338.667" y1="233.5" x2="338.667" y2="-168.667" gradientTransform="matrix(.50005 0 0 .50005 0 107.51)"><stop offset="0" stop-color="#66bb6a"/><stop offset="1" stop-color="#81c784"/></linearGradient><linearGradient id="i" gradientUnits="userSpaceOnUse" x1="248.708" y1="233.5" x2="248.708" y2="-168.667"><stop offset="0" stop-color="#66bb6a"/><stop offset="1" stop-color="#81c784"/></linearGradient></defs><path d="M63.508 224.27h121.719v10.585H63.507zm0 0" fill="url(#a)"/><path d="M185.227 224.27h21.168v-10.583h-21.168zm0 0" fill="url(#b)"/><path d="M63.508 224.27H42.336v10.585h21.172zm0 0" fill="url(#c)"/><path d="M63.508 224.27H42.336v-10.583h21.172zm0 0" fill="url(#d)"/><path d="M185.227 224.27h21.168v10.585h-21.168zm0 0" fill="url(#e)"/><path d="M148.336 23.168H52.922a10.564 10.564 0 0 0-10.586 10.586v179.934a10.561 10.561 0 0 0 10.586 10.582h142.887a10.559 10.559 0 0 0 10.586-10.583V81.227zm0 0" fill="url(#f)"/><path d="M42.336 209.578v4.11a10.561 10.561 0 0 0 10.586 10.582h142.887a10.559 10.559 0 0 0 10.586-10.583v-4.109a10.559 10.559 0 0 1-10.586 10.582H52.922a10.561 10.561 0 0 1-10.586-10.582zm0 0" fill-opacity=".235"/><path d="M148.18 73.445h50.277l7.938 7.938v10.586H148.18zm0 0" fill="url(#g)"/><path d="M52.922 23.168a10.564 10.564 0 0 0-10.586 10.586v3.969a10.564 10.564 0 0 1 10.586-10.586h95.414l58.059 58.058v-3.968l-58.06-58.059zm0 0" fill="#f6f6f6" fill-opacity=".588"/><path d="M206.395 81.227l-58.06-58.059v47.473a10.562 10.562 0 0 0 10.587 10.586zm0 0" fill="url(#h)"/><path d="M148.336 68.152v2.489a10.562 10.562 0 0 0 10.586 10.586h47.473l-2.489-2.489h-44.984a10.564 10.564 0 0 1-10.586-10.586zm0 0" fill-opacity=".235"/><path d="M148.336 23.168v3.969l54.09 54.09h3.969zm0 0" fill="#fff" fill-opacity=".392"/><path d="M148.324 22.418a.753.753 0 0 0-.738.75v47.473c0 6.27 5.066 11.336 11.336 11.336h47.473a.744.744 0 0 0 .69-.465.746.746 0 0 0-.16-.817l-58.058-58.058a.778.778 0 0 0-.543-.219zm.762 2.562l55.5 55.497h-45.664a9.797 9.797 0 0 1-9.836-9.836zm0 0" fill="#212121"/><path d="M52.922 22.418a11.33 11.33 0 0 0-11.336 11.336v179.934c0 6.265 5.07 11.332 11.336 11.332h142.887c6.27 0 11.336-5.067 11.336-11.333V81.227a.75.75 0 0 0-.22-.532l-58.058-58.058a.75.75 0 0 0-.531-.219zm0 1.5h95.105l57.618 57.621v132.149a9.794 9.794 0 0 1-9.836 9.832H52.922a9.796 9.796 0 0 1-9.836-9.833V33.755a9.8 9.8 0 0 1 9.836-9.836zm0 0" fill="#212121"/><path d="M236.227-30.674l-35.2 98.335-15.654-43.035H158.75V40.21h15.71l26.677 73.384L237.79 11.213l30.544 68.72 23.083-53.854 20.842 51.174h26.404V61.661h-15.92l-30.958-76.008-23.709 55.315zm0 0" transform="matrix(.50005 0 0 .50005 0 107.51)" fill="url(#i)" stroke-width="3" stroke="#212121"/></svg>
